!! 00000] TT[WS
!!!OTL: Er guniang liaobing
!!!ARE: Asia, China,ÿShanxi Linfen
!! Ethnic Group: Han
!! WI, 104
!!!SCT: J0122
!!!YEM: Copyright 1995, estate of Helmut Schaffrath.
**kern
*ICvox
*Ivox
*M2/4
*k[b-]
*F:
{8cc
8cc
8b-
8cc
=1
8.ff
16dd
8b-
8g
=2
8cc
16dd
16ff
8b-
16b-
16g
=3
16g
16b-
8a
4g}
=4
{8g
8g
8f
8g
=5
16cc
16ff
16dd
16cc
16b-
16cc
8g
=6
8cc
16dd
16ff
8b-
16b-
16g
=7
16g
16f
8e
4f}
=8
{16g
16b-
16g
16f
8g
8r
=9
4cc
4e
=10
8g
16g
16b-
16g
16f
8e
=11
8c
8B-
4c}
==
!!!AGN: Xiaodiao. Qingge
!!!ONB: ESAC (Essen Associative Code) Database: CHINA
!!!AMT: simple duple
!!!AIN: vox
!!!EED: Helmut Schaffrath
!!!EEV: 1.0
*-
